X:082
T:Ka-Foo-Zalum
M:4/4
L:1/8
K:G
d2 d>c B>c d2 | A>Bc>B A>B c2 | 
d2 d>c B>c d2 | G>AB>G A2G2 :| 
B>GD>G B2 B2 | c>AF>A c2 c2 | 
B>GD>G B2 B2 | G>AB>G A2 G2 | 
B>GD>G B>G B2 | c>AF>A c>A c2 | 
B>GD>G B>G B2 | G>AB>G A2 G2 | 

